; generated by PrusaSlicer 2.2.0+win64 on 2021-07-01 at 04:19:22 UTC

; 

; external perimeters extrusion width = 0.50mm
; perimeters extrusion width = 0.50mm
; infill extrusion width = 0.50mm
; solid infill extrusion width = 0.50mm
; top infill extrusion width = 0.50mm
; first layer extrusion width = 0.50mm

M107
M190 S70 ; set bed temperature and wait for it to be reached
M104 S265
SET_VELOCITY_LIMIT ACCEL=30000
SET_VELOCITY_LIMIT ACCEL_TO_DECEL=30000
SET_VELOCITY_LIMIT SQUARE_CORNER_VELOCITY=30
led_on
G28 ; home all axes
Z_TILT_ADJUST
G28 Z ; home Z only
M109 S265
G92 E0.0
G1 X10 Y10 Z0.2 F6000;
G1 X60.0 E9.0  F1000.0 ; intro line
G1 X100.0 E12.5  F1000.0 ; intro line
G92 E0.0
G21 ; set units to millimeters
G90 ; use absolute coordinates
M82 ; use absolute distances for extrusion
G92 E0
; Filament gcode
TIMELAPSE_TAKE_FRAME
G1 Z0.250 F24000.000
G1 E-0.90000 F3600.00000
G92 E0
G1 X146.763 Y148.547 F24000.000
G1 E0.90000 F3600.00000
G1 F24000.000
G1 X146.948 Y148.447 E0.90861
G1 X147.227 Y148.352 E0.92064
G1 X147.441 Y148.355 E0.92935
G1 X147.600 Y148.394 E0.93602
G1 X147.812 Y148.479 E0.94538
G1 X148.042 Y148.534 E0.95500
G1 X148.649 Y148.760 E0.98146
G1 X148.880 Y148.876 E0.99201
G1 X149.235 Y149.129 E1.00980
G1 X149.559 Y148.913 E1.02570
G1 X150.388 Y148.441 E1.06463
G1 X150.694 Y148.299 E1.07841
G1 X150.977 Y148.226 E1.09032
G1 X151.244 Y148.225 E1.10124
G1 X151.437 Y148.279 E1.10940
G1 X151.606 Y148.381 E1.11747
G1 X151.745 Y148.517 E1.12543
G1 X151.885 Y148.759 E1.13683
G1 X151.945 Y148.965 E1.14559
G1 X151.945 Y149.173 E1.15409
G1 X151.899 Y149.360 E1.16196
G1 X151.775 Y149.580 E1.17227
G1 X151.638 Y149.725 E1.18043
G1 X151.455 Y149.833 E1.18908
G1 X151.181 Y149.916 E1.20079
G1 X150.918 Y150.058 E1.21298
G1 X150.877 Y150.142 E1.21676
G1 X151.046 Y150.213 E1.22423
G1 X150.968 Y150.329 E1.22991
G1 X151.216 Y150.457 E1.24130
G1 X151.398 Y150.508 E1.24901
G1 X151.610 Y150.613 E1.25867
G1 X151.757 Y150.781 E1.26776
G1 X151.879 Y151.004 E1.27816
G1 X151.929 Y151.273 E1.28930
G1 X151.879 Y151.471 E1.29763
G1 X151.787 Y151.643 E1.30562
G1 X151.578 Y151.834 E1.31717
G1 X151.358 Y151.920 E1.32680
G1 X151.134 Y151.953 E1.33606
G1 X150.907 Y151.943 E1.34534
G1 X150.659 Y151.897 E1.35561
G1 X150.122 Y151.668 E1.37945
G1 X149.439 Y151.277 E1.41160
G1 X149.281 Y151.235 E1.41823
G1 X149.157 Y151.271 E1.42354
G1 X148.043 Y151.941 E1.47660
G1 X147.686 Y152.100 E1.49256
G1 X147.372 Y152.147 E1.50549
G1 X147.068 Y152.108 E1.51803
G1 X146.802 Y151.974 E1.53020
G1 X146.651 Y151.826 E1.53882
G1 X146.517 Y151.579 E1.55030
G1 X146.457 Y151.289 E1.56238
G1 X146.502 Y150.982 E1.57504
G1 X146.633 Y150.738 E1.58639
G1 X146.772 Y150.602 E1.59431
G1 X146.933 Y150.505 E1.60197
G1 X147.145 Y150.421 E1.61129
G1 X147.354 Y150.394 E1.61988
G1 X147.561 Y150.278 E1.62957
G1 X147.651 Y150.076 E1.63862
G1 X147.607 Y149.982 E1.64284
G1 X147.298 Y149.827 E1.65693
G1 X147.138 Y149.805 E1.66353
G1 X146.892 Y149.684 E1.67472
G1 X146.683 Y149.488 E1.68643
G1 X146.565 Y149.264 E1.69676
G1 X146.530 Y149.055 E1.70542
G1 X146.568 Y148.848 E1.71399
G1 X146.730 Y148.597 E1.72621
G1 X146.724 Y148.339
G1 X146.761 Y147.789
G1 X146.468 Y147.538 E1.74195
G1 X146.322 Y147.312 E1.75294
G1 X146.224 Y147.060 E1.76398
G1 X146.191 Y146.680 E1.77956
G1 X146.233 Y146.412 E1.79062
G1 X146.381 Y146.059 E1.80628
G1 X146.553 Y145.849 E1.81734
G1 X146.760 Y145.681 E1.82822
G1 X147.114 Y145.532 E1.84392
G1 X147.610 Y145.519 E1.86417
G1 X147.956 Y145.559 E1.87838
G1 X148.171 Y145.638 E1.88774
G1 X148.367 Y145.752 E1.89699
G1 X148.603 Y145.974 E1.91025
G1 X148.752 Y146.211 E1.92166
G1 X148.888 Y146.371 E1.93021
G1 X148.958 Y146.510 E1.93659
G1 X149.020 Y146.756 E1.94693
G1 X149.028 Y146.902 E1.95290
G1 X149.001 Y147.153 E1.96323
G1 X148.913 Y147.412 E1.97439
G1 X148.757 Y147.629 E1.98531
G1 X148.560 Y147.815 E1.99635
G1 X148.208 Y147.976 E2.01216
G1 X147.684 Y148.018 E2.03359
G1 X147.469 Y148.008 E2.04238
G1 X147.262 Y147.961 E2.05105
G1 X146.818 Y147.808 E2.07024
G1 X146.419 Y147.965
G1 E1.17024 F3600.00000
G92 E0
G1 X145.461 Y151.994 F24000.000
G1 E0.90000 F3600.00000
G1 F24000.000
G1 X145.596 Y152.136 E0.90800
G1 X145.714 Y152.363 E0.91848
G1 X145.869 Y152.877 E0.94036
G1 X146.006 Y153.049 E0.94936
G1 X146.182 Y153.154 E0.95772
G1 X146.751 Y153.372 E0.98259
G1 X147.130 Y153.554 E0.99975
G1 X147.274 Y153.597 E1.00590
G1 X147.416 Y153.568 E1.01184
G1 X148.033 Y153.298 E1.03933
G1 X150.287 Y152.474 E1.13728
G1 X150.549 Y152.419 E1.14821
G1 X150.969 Y152.400 E1.16539
G1 X151.343 Y152.411 E1.18067
G1 X151.588 Y152.474 E1.19101
G1 X151.747 Y152.602 E1.19934
G1 X151.863 Y152.763 E1.20743
G1 X151.931 Y153.023 E1.21840
G1 X151.938 Y153.216 E1.22630
G1 X151.911 Y153.424 E1.23485
G1 X151.812 Y153.664 E1.24548
G1 X151.692 Y153.831 E1.25387
G1 X151.550 Y153.961 E1.26173
G1 X151.382 Y154.061 E1.26970
G1 X151.107 Y154.156 E1.28160
G1 X150.094 Y154.297 E1.32335
G1 X149.440 Y154.552 E1.35202
G1 X149.459 Y154.588 E1.35370
G1 X150.044 Y154.769 E1.37868
G1 X150.887 Y154.880 E1.41339
G1 X151.147 Y154.959 E1.42450
G1 X151.368 Y155.064 E1.43449
G1 X151.632 Y155.246 E1.44759
G1 X151.814 Y155.470 E1.45937
G1 X151.911 Y155.714 E1.47009
G1 X151.920 Y155.902 E1.47778
G1 X151.874 Y156.100 E1.48607
G1 X151.716 Y156.310 E1.49681
G1 X151.560 Y156.439 E1.50507
G1 X151.318 Y156.519 E1.51547
G1 X151.003 Y156.585 E1.52862
G1 X150.451 Y156.518 E1.55130
G1 X149.783 Y156.357 E1.57936
G1 X149.264 Y156.201 E1.60147
G1 X146.587 Y155.243 E1.71756
G1 X145.417 Y154.783 E1.76889
G1 X144.875 Y154.518 E1.79353
G1 X144.518 Y154.256 E1.81158
G1 X144.251 Y153.925 E1.82895
G1 X144.100 Y153.620 E1.84286
G1 X143.959 Y153.149 E1.86291
G1 X143.927 Y152.854 E1.87505
G1 X143.940 Y152.660 E1.88297
G1 X143.989 Y152.471 E1.89095
G1 X144.079 Y152.291 E1.89915
G1 X144.206 Y152.140 E1.90721
G1 X144.354 Y152.021 E1.91497
G1 X144.530 Y151.928 E1.92310
G1 X144.721 Y151.863 E1.93134
G1 X144.944 Y151.835 E1.94048
G1 X145.108 Y151.844 E1.94721
G1 X145.290 Y151.894 E1.95492
G1 X145.409 Y151.963 E1.96053
G1 X145.643 Y151.922
G1 E1.06053 F3600.00000
G92 E0
G1 X146.628 Y157.113 F24000.000
G1 E0.90000 F3600.00000
G1 F24000.000
G1 X146.768 Y156.973 E0.90808
G1 X147.043 Y156.821 E0.92093
G1 X147.372 Y156.749 E0.93467
G1 X147.634 Y156.756 E0.94536
G1 X147.835 Y156.799 E0.95375
G1 X148.111 Y156.912 E0.96592
G1 X148.324 Y157.036 E0.97598
G1 X149.250 Y157.739 E1.02348
G1 X149.574 Y158.061 E1.04214
G1 X149.806 Y158.347 E1.05715
G1 X150.092 Y158.552 E1.07151
G1 X150.201 Y158.551 E1.07599
G1 X150.285 Y158.423 E1.08224
G1 X150.272 Y158.053 E1.09733
G1 X150.235 Y157.918 E1.10305
G1 X150.240 Y157.654 E1.11384
G1 X150.282 Y157.461 E1.12189
G1 X150.354 Y157.300 E1.12912
G1 X150.519 Y157.100 E1.13970
G1 X150.900 Y156.993 E1.15586
G1 X151.067 Y156.986 E1.16269
G1 X151.344 Y157.028 E1.17410
G1 X151.628 Y157.140 E1.18656
G1 X151.758 Y157.301 E1.19503
G1 X151.872 Y157.530 E1.20547
G1 X151.923 Y157.735 E1.21409
G1 X151.963 Y158.053 E1.22716
G1 X151.964 Y160.067 E1.30940
G1 X151.906 Y160.348 E1.32112
G1 X151.765 Y160.594 E1.33270
G1 X151.541 Y160.777 E1.34452
G1 X151.219 Y160.888 E1.35841
G1 X151.007 Y160.909 E1.36710
G1 X150.796 Y160.897 E1.37573
G1 X150.476 Y160.810 E1.38927
G1 X150.203 Y160.669 E1.40179
G1 X149.901 Y160.466 E1.41667
G1 X149.201 Y159.940 E1.45240
G1 X148.868 Y159.628 E1.47104
G1 X148.584 Y159.303 E1.48866
G1 X148.392 Y159.323 E1.49657
G1 X148.299 Y159.256 E1.50124
G1 X148.338 Y159.412 E1.50781
G1 X148.184 Y159.567 E1.51674
G1 X148.236 Y159.651 E1.52075
G1 X148.262 Y159.858 E1.52927
G1 X148.229 Y160.219 E1.54407
G1 X148.129 Y160.488 E1.55580
G1 X147.950 Y160.680 E1.56650
G1 X147.781 Y160.766 E1.57424
G1 X147.259 Y160.780 E1.59557
G1 X147.085 Y160.729 E1.60294
G1 X146.907 Y160.621 E1.61145
G1 X146.805 Y160.499 E1.61795
G1 X146.717 Y160.306 E1.62660
G1 X146.676 Y160.000 E1.63921
G1 X146.569 Y159.629 E1.65496
G1 X146.504 Y159.255 E1.67048
G1 X146.478 Y158.918 E1.68428
G1 X146.454 Y157.542 E1.74045
G1 X146.527 Y157.278 E1.75166
G1 X146.597 Y157.165 E1.75707
G1 X146.552 Y156.931
G1 E0.85707 F3600.00000
G92 E0
G1 X148.690 Y160.073 F24000.000
G1 E0.90000 F3600.00000
G1 F24000.000
G1 X148.914 Y160.282 E0.91250
G1 X149.642 Y160.830 E0.94968
G1 X149.976 Y161.054 E0.96610
G1 X150.313 Y161.228 E0.98159
G1 X150.723 Y161.340 E0.99895
G1 X151.016 Y161.357 E1.01093
G1 X151.315 Y161.327 E1.02319
G1 X151.717 Y161.189 E1.04054
G1 X151.140 Y161.610 E1.06972
G1 X150.664 Y161.923 E1.09298
G1 X150.138 Y162.223 E1.11769
G1 X150.001 Y162.248 E1.12339
G1 X149.873 Y162.226 E1.12868
G1 X149.755 Y162.175 E1.13394
G1 X149.224 Y161.852 E1.15930
G1 X148.240 Y161.205 E1.20738
G1 X148.074 Y161.117 E1.21503
G1 X148.223 Y161.041 E1.22184
G1 X148.516 Y160.727 E1.23938
G1 X148.668 Y160.319 E1.25717
G1 X148.685 Y160.133 E1.26478
G1 E0.36478 F3600.00000
G92 E0
G1 X146.838 Y140.981 F24000.000
G1 E0.90000 F3600.00000
G1 F24000.000
G1 X146.979 Y140.862 E0.90755
G1 X147.140 Y140.773 E0.91503
G1 X147.328 Y140.710 E0.92313
G1 X147.725 Y140.662 E0.93947
G1 X148.337 Y140.680 E0.96445
G1 X151.943 Y140.685 E1.11169
G1 X152.441 Y140.644 E1.13209
G1 X152.767 Y140.668 E1.14542
G1 X153.049 Y140.807 E1.15828
G1 X153.239 Y141.023 E1.17002
G1 X153.354 Y141.282 E1.18159
G1 X153.403 Y141.520 E1.19150
G1 X153.416 Y141.728 E1.20000
G1 X153.379 Y143.354 E1.26641
G1 X153.341 Y143.684 E1.27997
G1 X153.257 Y144.102 E1.29738
G1 X153.141 Y144.447 E1.31225
G1 X153.036 Y144.662 E1.32199
G1 X152.907 Y144.867 E1.33188
G1 X152.674 Y145.144 E1.34668
G1 X152.431 Y145.363 E1.36002
G1 X152.214 Y145.519 E1.37094
G1 X151.864 Y145.714 E1.38730
G1 X151.598 Y145.825 E1.39906
G1 X151.042 Y145.980 E1.42261
G1 X150.546 Y146.049 E1.44307
G1 X150.186 Y146.063 E1.45776
G1 X149.621 Y146.003 E1.48098
G1 X149.261 Y145.883 E1.49646
G1 X148.989 Y145.754 E1.50874
G1 X148.600 Y145.641 E1.52529
G1 X148.225 Y145.477 E1.54200
G1 X147.897 Y145.274 E1.55774
G1 X147.641 Y145.059 E1.57138
G1 X147.331 Y144.860 E1.58644
G1 X147.058 Y144.563 E1.60290
G1 X146.870 Y144.223 E1.61877
G1 X146.791 Y143.965 E1.62978
G1 X146.711 Y143.551 E1.64702
G1 X146.671 Y143.048 E1.66761
G1 X146.677 Y142.143 E1.70453
G1 X146.637 Y141.688 E1.72318
G1 X146.640 Y141.407 E1.73465
G1 X146.722 Y141.144 E1.74591
G1 X146.803 Y141.030 E1.75162
G1 X146.779 Y140.806
G1 E0.85162 F3600.00000
G92 E0
G1 X150.132 Y140.236 F24000.000
G1 E0.90000 F3600.00000
G1 F24000.000
G1 X150.371 Y140.155 E0.91028
G1 X150.459 Y139.885 E0.92189
G1 X150.530 Y139.835 E0.92542
G1 X150.652 Y139.917 E0.93141
G1 X150.832 Y140.180 E0.94442
G1 X151.148 Y140.237 E0.95752
G1 X150.192 Y140.236 E0.99653
G1 X150.016 Y139.804
G1 X149.710 Y139.907 E1.00972
G1 X149.541 Y140.019 E1.01801
G1 X149.007 Y140.147 E1.04041
G1 X148.540 Y140.150 E1.05948
G1 X148.073 Y140.047 E1.07900
G1 X147.613 Y139.838 E1.09964
G1 X147.301 Y139.621 E1.11516
G1 X147.038 Y139.364 E1.13017
G1 X146.827 Y139.072 E1.14489
G1 X146.709 Y138.847 E1.15525
G1 X146.587 Y138.512 E1.16981
G1 X146.535 Y138.268 E1.17998
G1 X146.495 Y137.870 E1.19631
G1 X146.495 Y137.568 E1.20866
G1 X146.532 Y137.169 E1.22500
G1 X146.589 Y136.896 E1.23638
G1 X146.690 Y136.589 E1.24959
G1 X146.837 Y136.310 E1.26247
G1 X147.036 Y136.068 E1.27525
G1 X147.270 Y135.897 E1.28707
G1 X147.547 Y135.787 E1.29923
G1 X147.798 Y135.751 E1.30961
G1 X148.063 Y135.771 E1.32044
G1 X148.341 Y135.880 E1.33264
G1 X148.560 Y136.075 E1.34460
G1 X148.694 Y136.316 E1.35588
G1 X148.748 Y136.511 E1.36412
G1 X148.767 Y136.718 E1.37261
G1 X148.717 Y137.070 E1.38713
G1 X148.597 Y137.338 E1.39908
G1 X148.287 Y137.774 E1.42092
G1 X148.283 Y137.822 E1.42292
G1 X148.338 Y137.976 E1.42959
G1 X148.413 Y138.070 E1.43449
G1 X148.558 Y138.153 E1.44131
G1 X148.690 Y138.177 E1.44678
G1 X148.779 Y138.168 E1.45043
G1 X148.941 Y138.107 E1.45751
G1 X149.067 Y138.023 E1.46369
G1 X149.187 Y137.905 E1.47056
G1 X149.278 Y137.773 E1.47713
G1 X149.343 Y137.622 E1.48380
G1 X149.455 Y137.066 E1.50699
G1 X149.552 Y136.825 E1.51758
G1 X149.665 Y136.671 E1.52540
G1 X149.835 Y136.537 E1.53423
G1 X150.104 Y136.459 E1.54567
G1 X150.304 Y136.461 E1.55381
G1 X150.591 Y136.526 E1.56582
G1 X150.864 Y136.698 E1.57902
G1 X151.073 Y137.024 E1.59482
G1 X151.313 Y137.681 E1.62336
G1 X151.411 Y137.793 E1.62945
G1 X151.508 Y137.863 E1.63434
G1 X151.643 Y137.889 E1.63994
G1 X151.751 Y137.823 E1.64509
G1 X151.767 Y137.794 E1.64649
G1 X151.786 Y137.702 E1.65030
G1 X151.772 Y137.541 E1.65692
G1 X151.465 Y136.793 E1.68991
G1 X151.437 Y136.548 E1.69997
G1 X151.501 Y136.367 E1.70780
G1 X151.618 Y136.180 E1.71684
G1 X151.716 Y136.097 E1.72205
G1 X152.025 Y135.918 E1.73662
G1 X152.292 Y135.896 E1.74759
G1 X152.496 Y135.913 E1.75591
G1 X152.857 Y136.031 E1.77144
G1 X153.103 Y136.242 E1.78465
G1 X153.358 Y136.625 E1.80345
G1 X153.486 Y136.977 E1.81874
G1 X153.557 Y137.359 E1.83459
G1 X153.579 Y137.854 E1.85484
G1 X153.541 Y138.303 E1.87323
G1 X153.464 Y138.663 E1.88825
G1 X153.383 Y138.890 E1.89812
G1 X153.274 Y139.106 E1.90797
G1 X153.083 Y139.373 E1.92137
G1 X152.918 Y139.537 E1.93086
G1 X152.741 Y139.672 E1.93997
G1 X152.547 Y139.779 E1.94901
G1 X152.347 Y139.853 E1.95772
G1 X152.133 Y139.897 E1.96662
G1 X151.659 Y139.906 E1.98598
G1 X151.515 Y139.850 E1.99229
G1 X151.095 Y139.774 E2.00973
G1 X150.962 Y139.580 E2.01931
G1 X150.830 Y139.505 E2.02552
G1 X150.652 Y139.343 E2.03535
G1 X150.498 Y139.097 E2.04718
G1 X150.384 Y139.322 E2.05744
G1 X150.227 Y139.503 E2.06724
G1 X150.082 Y139.604 E2.07446
G1 X150.035 Y139.747 E2.08060
G1 X150.020 Y140.127
G1 E1.18060 F3600.00000
G92 E0
G1 X152.963 Y135.422 F24000.000
G1 E0.90000 F3600.00000
G1 F24000.000
G1 X152.632 Y135.466 E0.91362
G1 X152.159 Y135.421 E0.93301
G1 X151.918 Y135.326 E0.94360
G1 X151.733 Y135.124 E0.95479
G1 X151.629 Y134.876 E0.96578
G1 X151.554 Y134.515 E0.98081
G1 X151.543 Y134.187 E0.99421
G1 X151.562 Y133.678 E1.01499
G1 X147.617 Y133.692 E1.17607
G1 X147.317 Y133.638 E1.18851
G1 X147.062 Y133.527 E1.19984
G1 X146.892 Y133.392 E1.20868
G1 X146.724 Y133.152 E1.22064
G1 X146.648 Y132.888 E1.23188
G1 X146.639 Y132.684 E1.24019
G1 X146.666 Y132.481 E1.24856
G1 X146.729 Y132.288 E1.25684
G1 X146.824 Y132.120 E1.26475
G1 X146.962 Y131.977 E1.27284
G1 X147.135 Y131.875 E1.28104
G1 X147.315 Y131.823 E1.28869
G1 X147.587 Y131.810 E1.29979
G1 X148.078 Y131.849 E1.31991
G1 X150.860 Y131.833 E1.43349
G1 X151.412 Y131.867 E1.45608
G1 X151.525 Y131.849 E1.46072
G1 X151.578 Y131.703 E1.46706
G1 X151.582 Y131.556 E1.47307
G1 X151.529 Y130.978 E1.49677
G1 X151.554 Y130.703 E1.50801
G1 X151.607 Y130.516 E1.51597
G1 X151.770 Y130.297 E1.52710
G1 X151.943 Y130.190 E1.53542
G1 X152.230 Y130.106 E1.54764
G1 X152.531 Y130.065 E1.56000
G1 X152.799 Y130.073 E1.57096
G1 X152.992 Y130.147 E1.57941
G1 X153.169 Y130.264 E1.58806
G1 X153.358 Y130.541 E1.60175
G1 X153.431 Y130.893 E1.61643
G1 X153.394 Y131.489 E1.64083
G1 X153.394 Y134.641 E1.76950
G1 X153.369 Y134.843 E1.77780
G1 X153.298 Y135.091 E1.78832
G1 X153.187 Y135.255 E1.79641
G1 X153.011 Y135.386 E1.80540
G1 X152.904 Y135.751
G1 X153.278 Y135.744
G1 X153.515 Y135.567 E1.81748
G1 X153.708 Y135.281 E1.83157
G1 X153.808 Y134.932 E1.84640
G1 X153.840 Y134.668 E1.85725
G1 X153.840 Y131.503 E1.98645
G1 X153.881 Y130.861 E2.01273
G1 X153.777 Y130.362 E2.03353
G1 X153.488 Y129.940 E2.05441
G1 X153.149 Y129.729 E2.07071
G1 X153.444 Y129.439 E2.08757
G1 X153.708 Y129.056 E2.10657
G1 X153.917 Y128.516 E2.13023
G1 X154.004 Y128.023 E2.15065
G1 X154.023 Y127.436 E2.17465
G1 X153.947 Y126.815 E2.20018
G1 X153.762 Y126.228 E2.22529
G1 X153.472 Y125.694 E2.25010
G1 X153.175 Y125.320 E2.26959
G1 X152.830 Y125.003 E2.28872
G1 X154.839 Y125.012 E2.37072
G1 X155.090 Y125.036 E2.38100
G1 X155.326 Y125.114 E2.39116
G1 X155.425 Y125.170 E2.39581
G1 X155.583 Y125.314 E2.40453
G1 X155.636 Y125.390 E2.40832
G1 X155.726 Y125.597 E2.41754
G1 X155.772 Y125.861 E2.42848
G1 X157.195 Y149.202 E3.38314
G1 X157.220 Y150.003 E3.41587
G1 X157.183 Y151.077 E3.45974
G1 X157.081 Y152.027 E3.49877
G1 X156.918 Y152.943 E3.53673
G1 X156.668 Y153.949 E3.57907
G1 X156.397 Y154.786 E3.61495
G1 X156.048 Y155.666 E3.65363
G1 X155.612 Y156.572 E3.69467
G1 X155.177 Y157.342 E3.73077
